app/src/images/icons/header-lk.svg

<svg width="16" height="18" viewBox="0 0 16 18" fill="none" xmlns="http://www.w3.org/2000/svg">
<path d="M7.6018 9.60787C3.41023 9.60787 0 13.0178 0 17.2093C0 17.4946 0.231161 17.7261 0.516754 17.7261H14.6865C14.9717 17.7261 15.2032 17.4946 15.2032 17.2093C15.2032 13.0178 11.793 9.60787 7.6018 9.60787ZM1.05383 16.6926C1.31841 13.3116 4.15436 10.6414 7.6018 10.6414C11.0492 10.6414 13.8852 13.3116 14.1494 16.6926H1.05383Z" fill="black"/>
<path d="M7.4777 8.92538C9.93849 8.92538 11.9404 6.92347 11.9404 4.46269C11.9404 2.0019 9.93814 0 7.4777 0C5.01692 0 3.01501 2.0019 3.01501 4.46269C3.01501 6.92347 5.01692 8.92538 7.4777 8.92538ZM7.4777 1.03351C9.36833 1.03351 10.9069 2.57171 10.9069 4.46269C10.9069 6.35332 9.36833 7.89187 7.4777 7.89187C5.58673 7.89187 4.04852 6.35366 4.04852 4.46269C4.04852 2.57171 5.58673 1.03351 7.4777 1.03351Z" fill="black"/>
</svg>

<svg width="16" height="18" fill="none" xmlns="http://www.w3.org/2000/svg"><path d="M7.602 9.608C3.41 9.608 0 13.018 0 17.209c0 .286.231.517.517.517h14.17a.517.517 0 00.516-.517c0-4.191-3.41-7.601-7.601-7.601zm-6.548 7.085a6.577 6.577 0 016.548-6.052 6.577 6.577 0 016.547 6.052H1.054zm6.424-7.768a4.468 4.468 0 004.462-4.462A4.468 4.468 0 007.478 0a4.468 4.468 0 00-4.463 4.463 4.468 4.468 0 004.463 4.462zm0-7.891a3.433 3.433 0 013.429 3.429 3.434 3.434 0 01-3.43 3.429 3.433 3.433 0 01-3.428-3.43 3.433 3.433 0 013.429-3.428z" fill="#000"/></svg>
